dist/img/sprites/icon_6.svg

<svg width="42" height="46" viewBox="0 0 42 46" fill="none" xmlns="http://www.w3.org/2000/svg">
<path d="M10.7812 40.068C10.7812 40.068 10.7812 25.288 10.7812 24.423C10.7812 21.695 8.57026 19.485 5.84326 19.485C3.11626 19.485 0.90625 21.695 0.90625 24.423C0.90625 26.292 1.95725 27.899 3.48825 28.736V38.108C3.48825 39.212 4.33625 40.108 5.38025 40.108H36.4583V44.889H34.1463L32.9583 40.139" stroke="white" stroke-miterlimit="10" stroke-linecap="round" stroke-linejoin="round"/>
<path d="M6.82227 1.48401C6.82227 1.48401 10.5723 7.401 10.7803 24.276" stroke="white" stroke-miterlimit="10" stroke-linecap="round" stroke-linejoin="round"/>
<path d="M5.54102 40.109V44.89H7.85303L9.04102 40.14" stroke="white" stroke-miterlimit="10" stroke-linecap="round" stroke-linejoin="round"/>
<path d="M31.2188 40.068C31.2188 40.068 31.2188 25.288 31.2188 24.423C31.2188 21.695 33.4297 19.485 36.1567 19.485C38.8837 19.485 41.0938 21.695 41.0938 24.423C41.0938 26.292 40.0427 27.899 38.5117 28.736V38.108C38.5117 39.212 37.6638 40.108 36.6198 40.108" stroke="white" stroke-miterlimit="10" stroke-linecap="round" stroke-linejoin="round"/>
<path d="M36.8023 19.526C36.6353 13.943 38.8023 3.31801 38.8023 3.31801C38.8023 2.30501 37.9813 1.48401 36.9683 1.48401H5.0303C4.0173 1.48401 3.19629 2.30501 3.19629 3.31801C3.19629 3.31801 5.36329 13.943 5.19629 19.526" stroke="white" stroke-miterlimit="10" stroke-linecap="round" stroke-linejoin="round"/>
<path d="M35.1777 1.48401C35.1777 1.48401 31.4277 7.401 31.2197 24.276" stroke="white" stroke-miterlimit="10" stroke-linecap="round" stroke-linejoin="round"/>
<path d="M10.8643 31.526H31.1143" stroke="white" stroke-miterlimit="10" stroke-linecap="round" stroke-linejoin="round"/>
<path d="M16.8125 5.54602V9.23402" stroke="white" stroke-miterlimit="10" stroke-linecap="round" stroke-linejoin="round"/>
<path d="M18.6567 7.39001H14.9688" stroke="white" stroke-miterlimit="10" stroke-linecap="round" stroke-linejoin="round"/>
<path d="M16.8125 13.484V17.171" stroke="white" stroke-miterlimit="10" stroke-linecap="round" stroke-linejoin="round"/>
<path d="M18.6567 15.328H14.9688" stroke="white" stroke-miterlimit="10" stroke-linecap="round" stroke-linejoin="round"/>
<path d="M16.8125 21.421V25.109" stroke="white" stroke-miterlimit="10" stroke-linecap="round" stroke-linejoin="round"/>
<path d="M18.6567 23.265H14.9688" stroke="white" stroke-miterlimit="10" stroke-linecap="round" stroke-linejoin="round"/>
<path d="M25.1875 5.54602V9.23402" stroke="white" stroke-miterlimit="10" stroke-linecap="round" stroke-linejoin="round"/>
<path d="M27.0317 7.39001H23.3438" stroke="white" stroke-miterlimit="10" stroke-linecap="round" stroke-linejoin="round"/>
<path d="M25.1875 13.484V17.171" stroke="white" stroke-miterlimit="10" stroke-linecap="round" stroke-linejoin="round"/>
<path d="M27.0317 15.328H23.3438" stroke="white" stroke-miterlimit="10" stroke-linecap="round" stroke-linejoin="round"/>
<path d="M25.1875 21.421V25.109" stroke="white" stroke-miterlimit="10" stroke-linecap="round" stroke-linejoin="round"/>
<path d="M27.0317 23.265H23.3438" stroke="white" stroke-miterlimit="10" stroke-linecap="round" stroke-linejoin="round"/>
</svg>

<svg width="42" height="46" viewBox="0 0 42 46" fill="none" xmlns="http://www.w3.org/2000/svg"><path d="M10.781 40.068V24.423a4.938 4.938 0 10-9.875 0c0 1.869 1.051 3.476 2.582 4.313v9.372c0 1.104.848 2 1.892 2h31.078v4.781h-2.312l-1.188-4.75M6.822 1.484s3.75 5.917 3.958 22.792" stroke="#fff" stroke-miterlimit="10" stroke-linecap="round" stroke-linejoin="round"/><path d="M5.541 40.109v4.781h2.312l1.188-4.75m22.178-.072V24.423a4.938 4.938 0 119.875 0c0 1.869-1.051 3.476-2.582 4.313v9.372c0 1.104-.848 2-1.892 2" stroke="#fff" stroke-miterlimit="10" stroke-linecap="round" stroke-linejoin="round"/><path d="M36.802 19.526c-.167-5.583 2-16.208 2-16.208a1.834 1.834 0 00-1.834-1.834H5.03a1.834 1.834 0 00-1.834 1.834s2.167 10.625 2 16.208M35.178 1.484s-3.75 5.917-3.958 22.792m-20.356 7.25h20.25M16.813 5.546v3.688m1.844-1.844h-3.688m1.844 6.094v3.687m1.844-1.843h-3.688m1.844 6.093v3.688m1.844-1.844h-3.688M25.188 5.546v3.688m1.844-1.844h-3.688m1.844 6.094v3.687m1.844-1.843h-3.688m1.844 6.093v3.688m1.844-1.844h-3.688" stroke="#fff" stroke-miterlimit="10" stroke-linecap="round" stroke-linejoin="round"/></svg>
